!!!OTL: MUHKUEHBCHEN FLIEGE
!!!ARE: Europa, Mitteleuropa, Deutschland, Thueringen, Stotternheim
!!!SCT: K0823
!!!YEM: Copyright 1995, estate of Helmut Schaffrath.
**kern
*ICvox
*Ivox
*M2/4
*k[f#]
*G:
=1
{4dd
8b
8g
=2
4dd
8b}
{8g
=3
8dd
8dd
8b
8g
=4
4dd
8b}
{16g
16g
=5
8dd
8dd
8b
8g
=6
8dd
8dd
4b}
=7
{8ee
8dd
8cc
8b
=8
8a
8a
4g}
==
!!!AGN: Kinder -, Tier - Lied
!!!ONB: ESAC (Essen Associative Code) Database: KINDER
!!!AMT: simple duple
!!!AIN: vox
!!!EED: Helmut Schaffrath
!!!EEV: 1.0
*-
